svg/material-icons/badge/materialiconstwotone/24px.svg

<svg xmlns="http://www.w3.org/2000/svg" width="24" height="24" viewBox="0 0 24 24"><path d="M14 13.5h4V12h-4v1.5zm0 3h4V15h-4v1.5zM20 7h-5V4c0-1.1-.9-2-2-2h-2c-1.1 0-2 .9-2 2v3H4c-1.1 0-2 .9-2 2v11c0 1.1.9 2 2 2h16c1.1 0 2-.9 2-2V9c0-1.1-.9-2-2-2zm-9-3h2v5h-2V4zm9 16H4V9h5c0 1.1.9 2 2 2h2c1.1 0 2-.9 2-2h5v11zM9 15c.83 0 1.5-.67 1.5-1.5S9.83 12 9 12s-1.5.67-1.5 1.5S8.17 15 9 15zm2.08 1.18c-.64-.28-1.34-.43-2.08-.43s-1.44.15-2.08.43c-.56.24-.92.78-.92 1.39V18h6v-.43c0-.61-.36-1.15-.92-1.39z"/><path d="M13 11h-2c-1.1 0-2-.9-2-2H4v11h16V9h-5c0 1.1-.9 2-2 2zm-4 1c.83 0 1.5.67 1.5 1.5S9.83 15 9 15s-1.5-.67-1.5-1.5S8.17 12 9 12zm3 6H6v-.43c0-.6.36-1.15.92-1.39.64-.28 1.34-.43 2.08-.43s1.44.15 2.08.43c.55.24.92.78.92 1.39V18zm6-1.5h-4V15h4v1.5zm0-3h-4V12h4v1.5z" opacity=".3"/></svg>

<svg xmlns="http://www.w3.org/2000/svg" enable-background="new 0 0 24 24" height="24" viewBox="0 0 24 24" width="24"><g><rect fill="none" height="24" width="24" y="0"/></g><g><g><path d="M14,13.5h4V12h-4V13.5z M14,16.5h4V15h-4V16.5z M20,7h-5V4c0-1.1-0.9-2-2-2h-2C9.9,2,9,2.9,9,4v3H4C2.9,7,2,7.9,2,9v11 c0,1.1,0.9,2,2,2h16c1.1,0,2-0.9,2-2V9C22,7.9,21.1,7,20,7z M11,4h2v5h-2V4z M20,20H4V9h5c0,1.1,0.9,2,2,2h2c1.1,0,2-0.9,2-2h5V20 z M9,15c0.83,0,1.5-0.67,1.5-1.5c0-0.83-0.67-1.5-1.5-1.5s-1.5,0.67-1.5,1.5C7.5,14.33,8.17,15,9,15z M11.08,16.18 C10.44,15.9,9.74,15.75,9,15.75s-1.44,0.15-2.08,0.43C6.36,16.42,6,16.96,6,17.57V18h6v-0.43C12,16.96,11.64,16.42,11.08,16.18z"/><path d="M13,11h-2c-1.1,0-2-0.9-2-2H4v11h16V9h-5C15,10.1,14.1,11,13,11z M9,12c0.83,0,1.5,0.67,1.5,1.5 c0,0.83-0.67,1.5-1.5,1.5s-1.5-0.67-1.5-1.5C7.5,12.67,8.17,12,9,12z M12,18H6v-0.43c0-0.6,0.36-1.15,0.92-1.39 C7.56,15.9,8.26,15.75,9,15.75s1.44,0.15,2.08,0.43c0.55,0.24,0.92,0.78,0.92,1.39V18z M18,16.5h-4V15h4V16.5z M18,13.5h-4V12h4 V13.5z" opacity=".3"/></g></g></svg>
